files/2/128x128/places/user-desktop.svg

<?xml version="1.0" encoding="UTF-8" standalone="no"?>
<svg
   xmlns:dc="http://purl.org/dc/elements/1.1/"
   xmlns:cc="http://creativecommons.org/ns#"
   xmlns:rdf="http://www.w3.org/1999/02/22-rdf-syntax-ns#"
   xmlns:svg="http://www.w3.org/2000/svg"
   xmlns="http://www.w3.org/2000/svg"
   xmlns:sodipodi="http://sodipodi.sourceforge.net/DTD/sodipodi-0.dtd"
   xmlns:inkscape="http://www.inkscape.org/namespaces/inkscape"
   width="128"
   height="128"
   viewBox="0 0 128 128"
   id="svg3383"
   version="1.1"
   inkscape:version="0.48.4 r9939"
   sodipodi:docname="user-desktop.svg">
  <metadata
     id="metadata3401">
    <rdf:RDF>
      <cc:Work
         rdf:about="">
        <dc:format>image/svg+xml</dc:format>
        <dc:type
           rdf:resource="http://purl.org/dc/dcmitype/StillImage" />
      </cc:Work>
    </rdf:RDF>
  </metadata>
  <defs
     id="defs3399" />
  <sodipodi:namedview
     pagecolor="#ffffff"
     bordercolor="#666666"
     borderopacity="1"
     objecttolerance="10"
     gridtolerance="10"
     guidetolerance="10"
     inkscape:pageopacity="0"
     inkscape:pageshadow="2"
     inkscape:window-width="678"
     inkscape:window-height="480"
     id="namedview3397"
     showgrid="false"
     inkscape:zoom="1.84375"
     inkscape:cx="119.86441"
     inkscape:cy="64.542373"
     inkscape:window-x="0"
     inkscape:window-y="0"
     inkscape:window-maximized="0"
     inkscape:current-layer="svg3383" />
  <path
     inkscape:connector-curvature="0"
     id="path3009"
     d="M 17.38672,102 C 15.55078,101.8125 14,99.968752 14,97.992188 L 14,22.027344 C 14,19.917968 15.785156,18 17.75,18 l 92.5,0 c 1.96484,0 3.75,1.917968 3.75,4.027344 l 0,64.941408 c 0,2.105468 -2.87109,5.132812 -4.83984,5.132812 l -33.859377,-0.0586 0,5.296876 c 0,2.085936 -1.64453,4.66016 -3.59766,4.66016 L 17.75,102 c -0.117188,0 -0.234376,0 -0.36328,0 z"
     style="fill:#e9a439;fill-opacity:1;stroke:#e9a439;stroke-width:4;stroke-opacity:1" />
  <path
     inkscape:connector-curvature="0"
     id="path3011"
     d="M 6.19922,26 C 3.921876,26.1875 2,28.031248 2,30.007812 L 2,105.97266 C 2,108.08203 4.210936,110 6.652344,110 l 114.695316,0 C 123.78906,110 126,108.08203 126,105.97266 l 0,-64.941412 c 0,-2.105468 -3.5625,-5.132812 -6,-5.132812 l -41.988277,0.0586 0,-5.296876 C 78.011723,28.57422 75.972653,26 73.550783,26 L 6.652344,26 C 6.503908,26 6.359376,26 6.19922,26 z"
     style="fill:#f5c14e;fill-opacity:1;stroke:#e9a439;stroke-width:4;stroke-opacity:1" />
  <path
     inkscape:connector-curvature="0"
     id="path3393"
     d="m 42.671875,56 0,5.328125 2.65625,0 0,-4 c 0,-1.34375 1.34375,-1.34375 1.34375,-1.34375 l 4,0.01563 0,-2.671875 -5.34375,0 c 0,0 -2.65625,0 -2.65625,2.671875 z m 34.65625,-2.671875 0,2.671875 4,0 c 0,0 1.34375,-0.01563 1.34375,1.328125 l 0,4 2.65625,0 0,-5.328125 c 0,-2.671875 -2.65625,-2.671875 -2.65625,-2.671875 z m -34.65625,29.34375 0,5.328125 c 0,2.671875 2.65625,2.671875 2.65625,2.671875 l 5.34375,0 0,-2.671875 -4,0.01563 C 45.328125,88 45.328125,86.6875 45.328125,86.6875 l 0,-4.015625 z m 40,0 0,4 c 0,1.3125 -1.34375,1.328125 -1.34375,1.328125 l -4,0 0,2.671875 5.34375,0 c 0,0 2.65625,0 2.65625,-2.671875 l 0,-5.328125 z"
     style="fill:#d0a444;fill-rule:evenodd;fill-opacity:1" />
  <path
     style="fill:#d0a444;fill-opacity:1"
     inkscape:connector-curvature="0"
     id="path3395"
     d="m 50.671875,63.984375 0,10.671875 c 0,2.65625 2.65625,2.65625 2.65625,2.65625 l 8,0 C 64,77.3125 64,74.65625 64,74.65625 l 0,-8 -5.328125,-5.34375 -5.34375,0 c 0,0 -2.65625,0 -2.65625,2.671875 z m 2.65625,0 5.34375,0 0,2.671875 2.65625,0 0,8 -8,0 z" />
</svg>

<svg width="128" xmlns="http://www.w3.org/2000/svg" height="128" viewBox="0 0 128 128" xmlns:xlink="http://www.w3.org/1999/xlink">
<g style="stroke:#e9a439">
<path style="fill:#e9a439" d="M 4.34668 24.5 C 3.887695 24.453125 3.5 23.992188 3.5 23.498047 L 3.5 4.506836 C 3.5 3.979492 3.946289 3.5 4.4375 3.5 L 27.5625 3.5 C 28.053711 3.5 28.5 3.979492 28.5 4.506836 L 28.5 20.742188 C 28.5 21.268555 27.782227 22.025391 27.290039 22.025391 L 18.825195 22.010742 L 18.825195 23.334961 C 18.825195 23.856445 18.414062 24.5 17.925781 24.5 L 4.4375 24.5 C 4.408203 24.5 4.378906 24.5 4.34668 24.5 Z " transform="matrix(4 0 0 4 0 4)"/>
<path style="fill:#f5c14e" d="M 1.549805 5.5 C 0.980469 5.546875 0.5 6.007812 0.5 6.501953 L 0.5 25.493164 C 0.5 26.020508 1.052734 26.5 1.663086 26.5 L 30.336914 26.5 C 30.947266 26.5 31.5 26.020508 31.5 25.493164 L 31.5 9.257812 C 31.5 8.731445 30.609375 7.974609 30 7.974609 L 19.50293 7.989258 L 19.50293 6.665039 C 19.50293 6.143555 18.993164 5.5 18.387695 5.5 L 1.663086 5.5 C 1.625977 5.5 1.589844 5.5 1.549805 5.5 Z " transform="matrix(4 0 0 4 0 4)"/>
</g>
<g style="fill:#e9a439">
<path style="fill-rule:evenodd" d="M 42.671875 56 L 42.671875 61.328125 L 45.328125 61.328125 L 45.328125 57.328125 C 45.328125 55.984375 46.671875 55.984375 46.671875 55.984375 L 50.671875 56 L 50.671875 53.328125 L 45.328125 53.328125 C 45.328125 53.328125 42.671875 53.328125 42.671875 56 Z M 77.328125 53.328125 L 77.328125 56 L 81.328125 56 C 81.328125 56 82.671875 55.984375 82.671875 57.328125 L 82.671875 61.328125 L 85.328125 61.328125 L 85.328125 56 C 85.328125 53.328125 82.671875 53.328125 82.671875 53.328125 Z M 42.671875 82.671875 L 42.671875 88 C 42.671875 90.671875 45.328125 90.671875 45.328125 90.671875 L 50.671875 90.671875 L 50.671875 88 L 46.671875 88.015625 C 45.328125 88 45.328125 86.6875 45.328125 86.6875 L 45.328125 82.671875 Z M 82.671875 82.671875 L 82.671875 86.671875 C 82.671875 87.984375 81.328125 88 81.328125 88 L 77.328125 88 L 77.328125 90.671875 L 82.671875 90.671875 C 82.671875 90.671875 85.328125 90.671875 85.328125 88 L 85.328125 82.671875 Z "/>
<path d="M 50.671875 63.984375 L 50.671875 74.65625 C 50.671875 77.3125 53.328125 77.3125 53.328125 77.3125 L 61.328125 77.3125 C 64 77.3125 64 74.65625 64 74.65625 L 64 66.65625 L 58.671875 61.3125 L 53.328125 61.3125 C 53.328125 61.3125 50.671875 61.3125 50.671875 63.984375 Z M 53.328125 63.984375 L 58.671875 63.984375 L 58.671875 66.65625 L 61.328125 66.65625 L 61.328125 74.65625 L 53.328125 74.65625 Z "/>
</g>
</svg>
